Newaita-dark/actions/32/color-gradient.svg

<svg height="32" viewBox="0 0 32 32" width="32" xmlns="http://www.w3.org/2000/svg"><g fill="#e0e0e0"><path d="m63.493937-62.827032 74.117922-84.679413 74.055428 84.679413zm0 0" stroke="#000" stroke-width=".264583" transform="matrix(.062506 0 0 .062506 0 13.438783)"/><path d="m7.9375 8.1875h1.324219c.363281 0 .660156.296875.660156.664062v5.289063c0 .367187-.296875.664063-.660156.664063h-1.324219c-.363281 0-.660156-.296876-.660156-.664063v-5.289063c0-.367187.296875-.664062.660156-.664062zm0 0"/><path d="m17.199219 12.820312h9.261719c.730468 0 1.324218.589844 1.324218 1.320313v3.96875c0 .734375-.59375 1.324219-1.324218 1.324219h-9.261719c-.730469 0-1.324219-.589844-1.324219-1.324219v-3.96875c0-.730469.59375-1.320313 1.324219-1.320313zm0 0" fill-opacity=".470588"/><path d="m17.199219 4.21875h9.261719c.730468 0 1.324218.59375 1.324218 1.324219v3.96875c0 .730469-.59375 1.324219-1.324218 1.324219h-9.261719c-.730469 0-1.324219-.59375-1.324219-1.324219v-3.96875c0-.730469.59375-1.324219 1.324219-1.324219zm0 0" fill-opacity=".313726"/><path d="m63.493937 148.840255 74.117922 84.679414 74.055428-84.679414zm0 0" stroke="#000" stroke-width=".264583" transform="matrix(.062506 0 0 .062506 0 13.438783)"/><path d="m7.9375 24.066406h1.324219c.363281 0 .660156-.296875.660156-.664062v-5.292969c0-.363281-.296875-.660156-.660156-.660156h-1.324219c-.363281 0-.660156.296875-.660156.660156v5.292969c0 .367187.296875.664062.660156.664062zm0 0"/><path d="m17.199219 21.417969h9.261719c.730468 0 1.324218.59375 1.324218 1.324219v3.96875c0 .730468-.59375 1.324218-1.324218 1.324218h-9.261719c-.730469 0-1.324219-.59375-1.324219-1.324218v-3.96875c0-.730469.59375-1.324219 1.324219-1.324219zm0 0" fill-opacity=".784314"/></g></svg>

<svg xmlns="http://www.w3.org/2000/svg" xmlns:xlink="http://www.w3.org/1999/xlink" width="32px" height="32px" viewBox="0 0 32 32" version="1.1">
<g id="surface1">
<path style="fill-rule:nonzero;fill:rgb(87.843138%,87.843138%,87.843138%);fill-opacity:1;stroke-width:0.264583;stroke-linecap:butt;stroke-linejoin:miter;stroke:rgb(0%,0%,0%);stroke-opacity:1;stroke-miterlimit:4;" d="M 63.493907 -62.826994 L 137.611794 -147.506368 L 211.667188 -62.826994 Z M 63.493907 -62.826994 " transform="matrix(0.062506,0,0,0.062506,0,13.438783)"/>
     <defs>
  <style id="current-color-scheme" type="text/css">
   .ColorScheme-Text { color:#eeeeee; } .ColorScheme-Highlight { color:#424242; }
  </style>
 </defs>
<path style="fill:currentColor" class="ColorScheme-Text" d="M 7.9375 8.1875 L 9.261719 8.1875 C 9.625 8.1875 9.921875 8.484375 9.921875 8.851562 L 9.921875 14.140625 C 9.921875 14.507812 9.625 14.804688 9.261719 14.804688 L 7.9375 14.804688 C 7.574219 14.804688 7.277344 14.507812 7.277344 14.140625 L 7.277344 8.851562 C 7.277344 8.484375 7.574219 8.1875 7.9375 8.1875 Z M 7.9375 8.1875 "/>
<path style=" stroke:none;fill-rule:nonzero;fill:rgb(87.843138%,87.843138%,87.843138%);fill-opacity:0.470588;" d="M 17.199219 12.820312 L 26.460938 12.820312 C 27.191406 12.820312 27.785156 13.410156 27.785156 14.140625 L 27.785156 18.109375 C 27.785156 18.84375 27.191406 19.433594 26.460938 19.433594 L 17.199219 19.433594 C 16.46875 19.433594 15.875 18.84375 15.875 18.109375 L 15.875 14.140625 C 15.875 13.410156 16.46875 12.820312 17.199219 12.820312 Z M 17.199219 12.820312 "/>
<path style=" stroke:none;fill-rule:nonzero;fill:rgb(87.843138%,87.843138%,87.843138%);fill-opacity:0.313726;" d="M 17.199219 4.21875 L 26.460938 4.21875 C 27.191406 4.21875 27.785156 4.8125 27.785156 5.542969 L 27.785156 9.511719 C 27.785156 10.242188 27.191406 10.835938 26.460938 10.835938 L 17.199219 10.835938 C 16.46875 10.835938 15.875 10.242188 15.875 9.511719 L 15.875 5.542969 C 15.875 4.8125 16.46875 4.21875 17.199219 4.21875 Z M 17.199219 4.21875 "/>
<path style="fill-rule:nonzero;fill:rgb(87.843138%,87.843138%,87.843138%);fill-opacity:1;stroke-width:0.264583;stroke-linecap:butt;stroke-linejoin:miter;stroke:rgb(0%,0%,0%);stroke-opacity:1;stroke-miterlimit:4;" d="M 63.493907 148.840194 L 137.611794 233.519568 L 211.667188 148.840194 Z M 63.493907 148.840194 " transform="matrix(0.062506,0,0,0.062506,0,13.438783)"/>
     <defs>
  <style id="current-color-scheme" type="text/css">
   .ColorScheme-Text { color:#eeeeee; } .ColorScheme-Highlight { color:#424242; }
  </style>
 </defs>
<path style="fill:currentColor" class="ColorScheme-Text" d="M 7.9375 24.066406 L 9.261719 24.066406 C 9.625 24.066406 9.921875 23.769531 9.921875 23.402344 L 9.921875 18.109375 C 9.921875 17.746094 9.625 17.449219 9.261719 17.449219 L 7.9375 17.449219 C 7.574219 17.449219 7.277344 17.746094 7.277344 18.109375 L 7.277344 23.402344 C 7.277344 23.769531 7.574219 24.066406 7.9375 24.066406 Z M 7.9375 24.066406 "/>
<path style=" stroke:none;fill-rule:nonzero;fill:rgb(87.843138%,87.843138%,87.843138%);fill-opacity:0.784314;" d="M 17.199219 21.417969 L 26.460938 21.417969 C 27.191406 21.417969 27.785156 22.011719 27.785156 22.742188 L 27.785156 26.710938 C 27.785156 27.441406 27.191406 28.035156 26.460938 28.035156 L 17.199219 28.035156 C 16.46875 28.035156 15.875 27.441406 15.875 26.710938 L 15.875 22.742188 C 15.875 22.011719 16.46875 21.417969 17.199219 21.417969 Z M 17.199219 21.417969 "/>
</g>
</svg>
